app/images/stats_car_oil.svg

<svg width="76" height="76" viewBox="0 0 76 76" fill="none" xmlns="http://www.w3.org/2000/svg">
<path d="M56.3871 9.80645H30.6451V7.35484H31.8709C32.5491 7.35484 33.0967 6.80538 33.0967 6.12903V1.22581C33.0967 0.549458 32.5491 0 31.8709 0H14.7096C14.0315 0 13.4838 0.549458 13.4838 1.22581V6.12903C13.4838 6.80538 14.0315 7.35484 14.7096 7.35484H15.9355V10.6462C13.0415 12.0264 11.0322 14.973 11.0322 18.3871V67.4194C11.0322 72.1496 14.8826 76 19.6129 76H56.3871C61.1173 76 64.9677 72.1496 64.9677 67.4194V18.3871C64.9677 13.6557 61.1173 9.80645 56.3871 9.80645ZM62.5161 18.3871V37.4924L57.6129 32.5892V20.8387C57.6129 18.8115 55.9627 17.1613 53.9354 17.1613H42.1849L37.2817 12.2581H56.3871C59.7664 12.2581 62.5161 15.0077 62.5161 18.3871ZM55.1613 30.1376L44.6366 19.6129H53.9354C54.6118 19.6129 55.1613 20.1636 55.1613 20.8387V30.1376ZM15.9355 2.45161H30.6451V4.90323H15.9355V2.45161ZM18.3871 7.35484H28.1935V9.80645H19.6129C19.1963 9.80645 18.7893 9.84715 18.3871 9.90461V7.35484ZM56.3871 73.5484H19.6129C16.2335 73.5484 13.4838 70.7987 13.4838 67.4194V18.3871C13.4838 15.0077 16.2335 12.2581 19.6129 12.2581H33.815L62.5161 40.9592V67.4194C62.5161 70.7987 59.7664 73.5484 56.3871 73.5484Z" fill="white"/>
<path d="M32.7375 15.0686C32.5082 14.8382 32.197 14.7095 31.8708 14.7095H20.8385C18.1343 14.7095 15.9353 16.9085 15.9353 19.6127V66.1933C15.9353 68.8975 18.1343 71.0966 20.8385 71.0966H55.1611C57.8653 71.0966 60.0643 68.8975 60.0643 66.1933V42.903C60.0643 42.5768 59.9357 42.2656 59.7052 42.0363L32.7375 15.0686ZM57.6127 66.1933C57.6127 67.5454 56.5132 68.645 55.1611 68.645H20.8385C19.4864 68.645 18.3869 67.5454 18.3869 66.1933V19.6127C18.3869 18.2606 19.4864 17.1611 20.8385 17.1611H31.3632L57.6127 43.4106V66.1933Z" fill="white"/>
<path d="M28.1938 54.8526C28.1938 59.3781 31.4373 63.1747 35.7372 63.681C36.0772 63.7199 36.4178 63.7409 36.7547 63.7409C38.8574 63.7409 40.8978 62.9772 42.4732 61.576C44.3059 59.948 45.3551 57.6107 45.3551 55.1614V54.8526C45.3551 52.4429 44.7458 50.0523 43.5924 47.9389L37.8507 37.413C37.4215 36.6247 36.1275 36.6247 35.6983 37.413L29.9565 47.9377C28.8032 50.0523 28.1938 52.4429 28.1938 54.8526ZM32.1089 49.112L36.7745 40.5607L41.4401 49.1144C42.3972 50.8675 42.9035 52.8523 42.9035 54.8526V55.1614C42.9035 56.9104 42.1536 58.5803 40.844 59.7433C39.5188 60.9218 37.804 61.4545 36.0245 61.2462C33.0091 60.8907 30.6455 58.0823 30.6455 54.8526C30.6455 52.8523 31.1518 50.8675 32.1089 49.112V49.112Z" fill="white"/>
<path d="M41.6772 55.1611H39.2255C39.2255 56.5132 38.126 57.6127 36.7739 57.6127V60.0644C39.4781 60.0644 41.6772 57.8653 41.6772 55.1611Z" fill="white"/>
</svg>

<svg width="76" height="76" fill="none" xmlns="http://www.w3.org/2000/svg"><path d="M56.387 9.806H30.645V7.355h1.226c.678 0 1.226-.55 1.226-1.226V1.226C33.097.549 32.549 0 31.87 0H14.71c-.679 0-1.226.55-1.226 1.226v4.903c0 .676.547 1.226 1.226 1.226h1.225v3.291c-2.894 1.38-4.903 4.327-4.903 7.741V67.42c0 4.73 3.85 8.581 8.58 8.581h36.775c4.73 0 8.58-3.85 8.58-8.58V18.386c0-4.731-3.85-8.58-8.58-8.58zm6.13 8.581v19.105l-4.904-4.903V20.84a3.682 3.682 0 00-3.678-3.678h-11.75l-4.903-4.903h19.105c3.38 0 6.13 2.75 6.13 6.13zm-7.356 11.75L44.637 19.614h9.298c.677 0 1.226.55 1.226 1.226v9.299zM15.935 2.453h14.71v2.451h-14.71V2.452zm2.452 4.903h9.806v2.451h-8.58c-.417 0-.824.041-1.226.099v-2.55zm38 66.193H19.613c-3.38 0-6.13-2.75-6.13-6.129V18.387c0-3.38 2.75-6.129 6.13-6.129h14.202L62.516 40.96v26.46c0 3.38-2.75 6.13-6.129 6.13z" fill="#fff"/><path d="M32.737 15.069a1.22 1.22 0 00-.866-.36H20.839a4.908 4.908 0 00-4.904 4.904v46.58a4.908 4.908 0 004.903 4.904h34.323c2.704 0 4.903-2.2 4.903-4.904v-23.29a1.22 1.22 0 00-.359-.867L32.737 15.07zm24.876 51.124c0 1.352-1.1 2.452-2.452 2.452H20.84a2.454 2.454 0 01-2.452-2.452v-46.58c0-1.352 1.1-2.452 2.451-2.452h10.525l26.25 26.25v22.782z" fill="#fff"/><path d="M28.194 54.853c0 4.525 3.243 8.322 7.543 8.828a8.605 8.605 0 006.736-2.105 8.585 8.585 0 002.882-6.415v-.308c0-2.41-.61-4.8-1.763-6.914l-5.741-10.526c-.43-.788-1.724-.788-2.153 0l-5.742 10.525a14.482 14.482 0 00-1.762 6.915zm3.915-5.741l4.666-8.551 4.665 8.553a12.01 12.01 0 011.464 5.739v.308c0 1.75-.75 3.42-2.06 4.582-1.325 1.179-3.04 1.712-4.82 1.503-3.015-.355-5.379-3.164-5.379-6.393 0-2 .507-3.986 1.464-5.741z" fill="#fff"/><path d="M41.677 55.161h-2.452a2.454 2.454 0 01-2.451 2.452v2.451a4.908 4.908 0 004.903-4.903z" fill="#fff"/></svg>
